modules/framework7-icons/icons/arrow_right_fill.svg

<?xml version="1.0" encoding="UTF-8"?>
<svg width="50px" height="50px" viewBox="0 0 50 50" version="1.1" xmlns="http://www.w3.org/2000/svg" xmlns:xlink="http://www.w3.org/1999/xlink">
    <!-- Generator: Sketch 40.1 (33804) - http://www.bohemiancoding.com/sketch -->
    <title>arrow_right_fill</title>
    <desc>Created with Sketch.</desc>
    <defs></defs>
    <g id="Page-1" stroke="none" stroke-width="1" fill="none" fill-rule="evenodd">
        <g id="arrow_right_fill" fill="#000000">
            <path d="M25,50 C38.8071187,50 50,38.8071187 50,25 C50,11.1928813 38.8071187,0 25,0 C11.1928813,0 0,11.1928813 0,25 C0,38.8071187 11.1928813,50 25,50 Z M31.6470368,27.4754639 L13.4763281,27.4754639 C12.3712813,27.4754639 11.4754639,26.5877343 11.4754639,25.4754639 C11.4754639,24.3708944 12.3770912,23.4754639 13.4763281,23.4754639 L31.6470368,23.4754639 L25.1080305,16.9364576 C24.3288996,16.1573268 24.325009,14.8979968 25.1115029,14.1115029 C25.8925515,13.3304543 27.1568961,13.3284689 27.9364576,14.1080305 L37.8428973,24.0144702 C38.254873,24.4264458 38.4500989,24.9726805 38.4263362,25.5122804 L38.4263362,25.5122804 C38.4301673,26.0275238 38.2357937,26.5435612 37.8428973,26.9364576 L27.9364576,36.8428973 C27.1573268,37.6220282 25.8979968,37.6259188 25.1115029,36.8394249 C24.3304543,36.0583764 24.3284689,34.7940317 25.1080305,34.0144702 L31.6470368,27.4754639 L31.6470368,27.4754639 Z" id="Combined-Shape"></path>
        </g>
    </g>
</svg>

<svg width="50" height="50" viewBox="0 0 50 50" xmlns="http://www.w3.org/2000/svg"><path d="M25 50c13.807 0 25-11.193 25-25S38.807 0 25 0 0 11.193 0 25s11.193 25 25 25zm6.647-22.525h-18.17c-1.106 0-2.002-.887-2.002-2 0-1.104.902-2 2.001-2h18.171l-6.539-6.539a1.993 1.993 0 0 1 .004-2.824 1.997 1.997 0 0 1 2.824-.004l9.907 9.906c.412.412.607.959.583 1.498a1.986 1.986 0 0 1-.583 1.424l-9.907 9.907c-.779.779-2.038.783-2.824-.004a1.997 1.997 0 0 1-.004-2.825l6.539-6.539z" fill="#000" fill-rule="evenodd"/></svg>
